X: 3
T: Paddy On The Turnpike
R: reel
M: 4/4
L: 1/8
K: Gdor
DGGF ~G3A|BG~G2 dGBG|DFFE ~F3B|AFcF dFcF|DGGF ~G3A|BGGA Bcde|~f3d cAFA|1 BGAF ~G3F:|2 BGAF ~G3c|||:dggf ~g3a|bg~g2 bgaf|dffe ~f3g|af~f2 afgf|dggf ~g3a|bg~g2 gfde|~f3d cAFA|1 BGAF ~G3c:|2 BGAF ~G3F||


Tune 338	Setting 338

